images/safety-number-migration.svg

<svg width="48" height="48" viewBox="0 0 48 48" fill="none" xmlns="http://www.w3.org/2000/svg">
<rect x="29.3486" y="6" width="20" height="32" rx="4" transform="rotate(25 29.3486 6)" fill="#86A1E3" stroke="#3D62BC" stroke-width="1.75"/>
<g clip-path="url(#clip0_8_3611)">
<path d="M36.7111 19.4259C36.9746 19.2614 37.0549 18.9144 36.8904 18.6509C36.7259 18.3873 36.3789 18.3071 36.1153 18.4716L32.9916 20.4217L32.6913 19.1078C32.622 18.805 32.3204 18.6156 32.0176 18.6848C31.7147 18.754 31.5253 19.0557 31.5946 19.3585L32.0709 21.4426C32.1115 21.62 32.2353 21.7668 32.4033 21.8367C32.5714 21.9065 32.7628 21.8908 32.9172 21.7944L36.7111 19.4259Z" fill="white"/>
<path fill-rule="evenodd" clip-rule="evenodd" d="M30.6389 24.3772C30.9879 25.0957 31.7929 25.4711 32.5677 25.2766L34.8402 24.706C36.1636 24.3738 37.2969 23.5214 37.9831 22.3421L39.3586 19.9783C39.7524 19.3014 39.6289 18.4426 39.0602 17.9042L36.9889 15.943C36.4292 15.4131 35.7127 15.0789 34.9469 14.9908L32.1132 14.6647C31.3353 14.5752 30.5979 15.0326 30.3326 15.7694L29.4059 18.3425C28.9436 19.6262 29.0191 21.0422 29.6152 22.2696L30.6389 24.3772ZM32.2938 24.1855C32.0355 24.2503 31.7672 24.1252 31.6508 23.8857L30.6272 21.7781C30.1635 20.8235 30.1048 19.7221 30.4644 18.7236L31.3911 16.1505C31.4795 15.905 31.7253 15.7525 31.9846 15.7823L34.8183 16.1084C35.3422 16.1687 35.8325 16.3973 36.2155 16.76L38.2868 18.7211C38.4763 18.9005 38.5175 19.1868 38.3862 19.4124L37.0107 21.7763C36.477 22.6935 35.5956 23.3565 34.5663 23.6149L32.2938 24.1855Z" fill="white"/>
<path d="M36.7111 19.4259C36.9746 19.2614 37.0549 18.9144 36.8904 18.6509C36.7259 18.3873 36.3789 18.3071 36.1153 18.4716L32.9916 20.4217L32.6913 19.1078C32.622 18.805 32.3204 18.6156 32.0176 18.6848C31.7147 18.754 31.5253 19.0557 31.5946 19.3585L32.0709 21.4426C32.1115 21.62 32.2353 21.7668 32.4033 21.8367C32.5714 21.9065 32.7628 21.8908 32.9172 21.7944L36.7111 19.4259Z" stroke="white" stroke-width="0.25"/>
<path fill-rule="evenodd" clip-rule="evenodd" d="M30.6389 24.3772C30.9879 25.0957 31.7929 25.4711 32.5677 25.2766L34.8402 24.706C36.1636 24.3738 37.2969 23.5214 37.9831 22.3421L39.3586 19.9783C39.7524 19.3014 39.6289 18.4426 39.0602 17.9042L36.9889 15.943C36.4292 15.4131 35.7127 15.0789 34.9469 14.9908L32.1132 14.6647C31.3353 14.5752 30.5979 15.0326 30.3326 15.7694L29.4059 18.3425C28.9436 19.6262 29.0191 21.0422 29.6152 22.2696L30.6389 24.3772ZM32.2938 24.1855C32.0355 24.2503 31.7672 24.1252 31.6508 23.8857L30.6272 21.7781C30.1635 20.8235 30.1048 19.7221 30.4644 18.7236L31.3911 16.1505C31.4795 15.905 31.7253 15.7525 31.9846 15.7823L34.8183 16.1084C35.3422 16.1687 35.8325 16.3973 36.2155 16.76L38.2868 18.7211C38.4763 18.9005 38.5175 19.1868 38.3862 19.4124L37.0107 21.7763C36.477 22.6935 35.5956 23.3565 34.5663 23.6149L32.2938 24.1855Z" stroke="white" stroke-width="0.25"/>
</g>
<path d="M28.6304 28.8359L30.443 29.6812" stroke="white" stroke-width="1.5" stroke-linecap="round"/>
<path d="M24.0991 26.7229L25.9117 27.5681" stroke="white" stroke-width="1.5" stroke-linecap="round"/>
<path d="M33.1621 30.9492L34.9747 31.7945" stroke="white" stroke-width="1.5" stroke-linecap="round"/>
<path d="M27.3628 31.5549L29.1754 32.4002" stroke="white" stroke-width="1.5" stroke-linecap="round"/>
<path d="M22.8311 29.4419L24.6437 30.2871" stroke="white" stroke-width="1.5" stroke-linecap="round"/>
<path d="M31.894 33.668L33.7067 34.5132" stroke="white" stroke-width="1.5" stroke-linecap="round"/>
<path d="M26.0947 34.2739L27.9073 35.1192" stroke="white" stroke-width="1.5" stroke-linecap="round"/>
<path d="M21.563 32.1609L23.3756 33.0061" stroke="white" stroke-width="1.5" stroke-linecap="round"/>
<path d="M30.6265 36.387L32.4391 37.2322" stroke="white" stroke-width="1.5" stroke-linecap="round"/>
<rect y="14.4524" width="20" height="32" rx="4" transform="rotate(-25 0 14.4524)" fill="#EBEAE8" stroke="#837D72" stroke-width="1.75"/>
<g clip-path="url(#clip1_8_3611)">
<path d="M15.0172 17.4425C15.0605 17.1348 14.8463 16.8503 14.5387 16.807C14.2311 16.7636 13.9465 16.9778 13.9032 17.2854L13.3892 20.9319L12.1896 20.3174C11.9131 20.1758 11.5742 20.2851 11.4325 20.5616C11.2909 20.8381 11.4002 21.177 11.6767 21.3187L13.5794 22.2934C13.7414 22.3763 13.9334 22.3758 14.095 22.292C14.2565 22.2082 14.3675 22.0514 14.3929 21.8712L15.0172 17.4425Z" fill="#837D72"/>
<path fill-rule="evenodd" clip-rule="evenodd" d="M14.9069 25.2767C15.6817 25.4712 16.4868 25.0958 16.8358 24.3772L17.8594 22.2696C18.4556 21.0423 18.531 19.6263 18.0687 18.3425L17.1421 15.7694C16.8767 15.0327 16.1394 14.5752 15.3615 14.6648L12.5277 14.9909C11.762 15.079 11.0455 15.4131 10.4857 15.9431L8.41443 17.9042C7.84579 18.4426 7.72225 19.3015 8.11609 19.9783L9.49156 22.3421C10.1778 23.5215 11.311 24.3739 12.6344 24.7061L14.9069 25.2767ZM15.8238 23.8857C15.7075 24.1252 15.4391 24.2504 15.1809 24.1855L12.9084 23.615C11.8791 23.3566 10.9977 22.6936 10.4639 21.7763L9.08846 19.4125C8.95717 19.1869 8.99835 18.9006 9.1879 18.7211L11.2592 16.76C11.6422 16.3974 12.1324 16.1688 12.6564 16.1085L15.4901 15.7824C15.7494 15.7525 15.9952 15.905 16.0836 16.1506L17.0103 18.7237C17.3698 19.7222 17.3111 20.8235 16.8475 21.7781L15.8238 23.8857Z" fill="#837D72"/>
<path d="M15.0172 17.4425C15.0605 17.1348 14.8463 16.8503 14.5387 16.807C14.2311 16.7636 13.9465 16.9778 13.9032 17.2854L13.3892 20.9319L12.1896 20.3174C11.9131 20.1758 11.5742 20.2851 11.4325 20.5616C11.2909 20.8381 11.4002 21.177 11.6767 21.3187L13.5794 22.2934C13.7414 22.3763 13.9334 22.3758 14.095 22.292C14.2565 22.2082 14.3675 22.0514 14.3929 21.8712L15.0172 17.4425Z" stroke="#837D72" stroke-width="0.25"/>
<path fill-rule="evenodd" clip-rule="evenodd" d="M14.9069 25.2767C15.6817 25.4712 16.4868 25.0958 16.8358 24.3772L17.8594 22.2696C18.4556 21.0423 18.531 19.6263 18.0687 18.3425L17.1421 15.7694C16.8767 15.0327 16.1394 14.5752 15.3615 14.6648L12.5277 14.9909C11.762 15.079 11.0455 15.4131 10.4857 15.9431L8.41443 17.9042C7.84579 18.4426 7.72225 19.3015 8.11609 19.9783L9.49156 22.3421C10.1778 23.5215 11.311 24.3739 12.6344 24.7061L14.9069 25.2767ZM15.8238 23.8857C15.7075 24.1252 15.4391 24.2504 15.1809 24.1855L12.9084 23.615C11.8791 23.3566 10.9977 22.6936 10.4639 21.7763L9.08846 19.4125C8.95717 19.1869 8.99835 18.9006 9.1879 18.7211L11.2592 16.76C11.6422 16.3974 12.1324 16.1688 12.6564 16.1085L15.4901 15.7824C15.7494 15.7525 15.9952 15.905 16.0836 16.1506L17.0103 18.7237C17.3698 19.7222 17.3111 20.8235 16.8475 21.7781L15.8238 23.8857Z" stroke="#837D72" stroke-width="0.25"/>
</g>
<path d="M17.0317 29.6814L18.8444 28.8362" stroke="#837D72" stroke-width="1.5" stroke-linecap="round"/>
<path d="M12.5 31.7944L14.3126 30.9492" stroke="#837D72" stroke-width="1.5" stroke-linecap="round"/>
<path d="M21.5635 27.5681L23.3761 26.7229" stroke="#837D72" stroke-width="1.5" stroke-linecap="round"/>
<path d="M18.2998 32.4001L20.1124 31.5549" stroke="#837D72" stroke-width="1.5" stroke-linecap="round"/>
<path d="M13.7681 34.5134L15.5807 33.6682" stroke="#837D72" stroke-width="1.5" stroke-linecap="round"/>
<path d="M22.8311 30.2871L24.6437 29.4419" stroke="#837D72" stroke-width="1.5" stroke-linecap="round"/>
<path d="M19.5674 35.1191L21.38 34.2739" stroke="#837D72" stroke-width="1.5" stroke-linecap="round"/>
<path d="M15.0361 37.2322L16.8487 36.3869" stroke="#837D72" stroke-width="1.5" stroke-linecap="round"/>
<path d="M24.0991 33.0061L25.9117 32.1609" stroke="#837D72" stroke-width="1.5" stroke-linecap="round"/>
<defs>
<clipPath id="clip0_8_3611">
<rect width="12" height="12" fill="white" transform="translate(30.8608 12.2219) rotate(25)"/>
</clipPath>
<clipPath id="clip1_8_3611">
<rect width="12" height="12" fill="white" transform="translate(5.73828 17.2935) rotate(-25)"/>
</clipPath>
</defs>
</svg>

<svg xmlns="http://www.w3.org/2000/svg" width="48" height="48" fill="none"><rect width="20" height="32" x="29.349" y="6" fill="#86A1E3" stroke="#3D62BC" stroke-width="1.75" rx="4" transform="rotate(25 29.349 6)"/><g clip-path="url(#a)"><path fill="#fff" d="M36.711 19.426a.563.563 0 1 0-.596-.954l-3.123 1.95-.3-1.314a.563.563 0 0 0-1.097.25l.476 2.085a.563.563 0 0 0 .846.351z"/><path fill="#fff" fill-rule="evenodd" d="M30.639 24.377a1.69 1.69 0 0 0 1.929.9l2.272-.571a5.06 5.06 0 0 0 3.143-2.364l1.376-2.364a1.69 1.69 0 0 0-.299-2.074l-2.071-1.961a3.56 3.56 0 0 0-2.042-.952l-2.834-.326a1.69 1.69 0 0 0-1.78 1.104l-.927 2.574a5.06 5.06 0 0 0 .21 3.927zm1.655-.191a.56.56 0 0 1-.643-.3l-1.024-2.108a3.94 3.94 0 0 1-.163-3.054l.927-2.573a.56.56 0 0 1 .594-.369l2.833.326c.524.06 1.015.29 1.398.652l2.07 1.961c.19.18.231.466.1.691l-1.375 2.364a3.94 3.94 0 0 1-2.445 1.839z" clip-rule="evenodd"/><path stroke="#fff" stroke-width=".25" d="M36.711 19.426a.563.563 0 1 0-.596-.954l-3.123 1.95-.3-1.314a.563.563 0 0 0-1.097.25l.476 2.085a.563.563 0 0 0 .846.351z"/><path stroke="#fff" stroke-width=".25" d="M30.639 24.377a1.69 1.69 0 0 0 1.929.9l2.272-.571a5.06 5.06 0 0 0 3.143-2.364l1.376-2.364a1.69 1.69 0 0 0-.299-2.074l-2.071-1.961a3.56 3.56 0 0 0-2.042-.952l-2.834-.326a1.69 1.69 0 0 0-1.78 1.104l-.927 2.574a5.06 5.06 0 0 0 .21 3.927zm1.655-.191a.56.56 0 0 1-.643-.3l-1.024-2.108a3.94 3.94 0 0 1-.163-3.054l.927-2.573a.56.56 0 0 1 .594-.369l2.833.326c.524.06 1.015.29 1.398.652l2.07 1.961c.19.18.231.466.1.691l-1.375 2.364a3.94 3.94 0 0 1-2.445 1.839z" clip-rule="evenodd"/></g><path stroke="#fff" stroke-linecap="round" stroke-width="1.5" d="m28.63 28.836 1.813.845M24.1 26.723l1.812.845m7.25 3.382 1.813.845m-7.612-.24 1.812.845m-6.344-2.958 1.813.845m7.25 3.381 1.813.845m-7.612-.239 1.812.845m-6.344-2.959 1.813.846m7.251 3.381 1.812.845"/><rect width="20" height="32" y="14.452" fill="#EBEAE8" stroke="#837D72" stroke-width="1.75" rx="4" transform="rotate(-25 0 14.452)"/><g clip-path="url(#b)"><path fill="#837D72" d="M15.017 17.443a.562.562 0 0 0-1.114-.158l-.514 3.647-1.2-.615a.563.563 0 0 0-.512 1.002l1.902.974a.563.563 0 0 0 .814-.422z"/><path fill="#837D72" fill-rule="evenodd" d="M14.907 25.277a1.69 1.69 0 0 0 1.929-.9l1.023-2.107a5.06 5.06 0 0 0 .21-3.927l-.927-2.574a1.69 1.69 0 0 0-1.78-1.104l-2.834.326a3.56 3.56 0 0 0-2.042.952l-2.072 1.961a1.69 1.69 0 0 0-.298 2.074l1.376 2.364a5.06 5.06 0 0 0 3.142 2.364zm.917-1.391a.56.56 0 0 1-.643.3l-2.273-.571a3.94 3.94 0 0 1-2.444-1.839l-1.376-2.363a.56.56 0 0 1 .1-.692l2.071-1.961a2.44 2.44 0 0 1 1.397-.652l2.834-.326c.26-.03.505.123.594.369l.926 2.573c.36.998.301 2.1-.163 3.054z" clip-rule="evenodd"/><path stroke="#837D72" stroke-width=".25" d="M15.017 17.443a.562.562 0 0 0-1.114-.158l-.514 3.647-1.2-.615a.563.563 0 0 0-.512 1.002l1.902.974a.563.563 0 0 0 .814-.422z"/><path stroke="#837D72" stroke-width=".25" d="M14.907 25.277a1.69 1.69 0 0 0 1.929-.9l1.023-2.107a5.06 5.06 0 0 0 .21-3.927l-.927-2.574a1.69 1.69 0 0 0-1.78-1.104l-2.834.326a3.56 3.56 0 0 0-2.042.952l-2.072 1.961a1.69 1.69 0 0 0-.298 2.074l1.376 2.364a5.06 5.06 0 0 0 3.142 2.364zm.917-1.391a.56.56 0 0 1-.643.3l-2.273-.571a3.94 3.94 0 0 1-2.444-1.839l-1.376-2.363a.56.56 0 0 1 .1-.692l2.071-1.961a2.44 2.44 0 0 1 1.397-.652l2.834-.326c.26-.03.505.123.594.369l.926 2.573c.36.998.301 2.1-.163 3.054z" clip-rule="evenodd"/></g><path stroke="#837D72" stroke-linecap="round" stroke-width="1.5" d="m17.032 29.681 1.812-.845M12.5 31.794l1.813-.845m7.251-3.381 1.812-.845M18.3 32.4l1.812-.845m-6.344 2.958 1.813-.845m7.25-3.381 1.813-.845m-5.077 5.678 1.813-.846m-6.344 2.958 1.813-.845m7.251-3.381 1.812-.845"/><defs><clipPath id="a"><path fill="#fff" d="m30.86 12.222 10.876 5.071-5.07 10.876-10.877-5.071z"/></clipPath><clipPath id="b"><path fill="#fff" d="m5.738 17.294 10.876-5.072 5.071 10.876-10.875 5.071z"/></clipPath></defs></svg>
